data/icons/display-measure-vertical.svg

<?xml version="1.0" encoding="UTF-8"?>
<svg height="128px" viewBox="0 0 128 128" width="128px" xmlns="http://www.w3.org/2000/svg" xmlns:xlink="http://www.w3.org/1999/xlink">
    <linearGradient id="a" gradientUnits="userSpaceOnUse">
        <stop offset="0" stop-color="#241f31"/>
        <stop offset="0.0357143" stop-color="#5e5c64"/>
        <stop offset="0.0713653" stop-color="#241f31"/>
        <stop offset="0.928571" stop-color="#241f31"/>
        <stop offset="0.964286" stop-color="#5e5c64"/>
        <stop offset="1" stop-color="#241f31"/>
    </linearGradient>
    <linearGradient id="b" x1="88.0000305" x2="40" xlink:href="#a" y1="119.99999275" y2="119.99999275"/>
    <linearGradient id="c" x1="120.00000025" x2="8.000004" xlink:href="#a" y1="95.99999225" y2="95.99999225"/>
    <linearGradient id="d" gradientUnits="userSpaceOnUse" x1="76.0000305" x2="52.0000305" y1="110.0000005" y2="110.0000005">
        <stop offset="0" stop-color="#241f31"/>
        <stop offset="0.0357143"/>
        <stop offset="0.0713653" stop-color="#241f31"/>
        <stop offset="0.928571" stop-color="#241f31"/>
        <stop offset="0.964286"/>
        <stop offset="1" stop-color="#241f31"/>
    </linearGradient>
    <filter id="e" height="100%" width="100%" x="0%" y="0%">
        <feColorMatrix in="SourceGraphic" type="matrix" values="0 0 0 0 1 0 0 0 0 1 0 0 0 0 1 0 0 0 1 0"/>
    </filter>
    <mask id="f">
        <g filter="url(#e)">
            <rect fill-opacity="0.3" height="128" width="128"/>
        </g>
    </mask>
    <clipPath id="g">
        <rect height="152" width="192"/>
    </clipPath>
    <mask id="h">
        <g filter="url(#e)">
            <rect fill-opacity="0.3" height="128" width="128"/>
        </g>
    </mask>
    <clipPath id="i">
        <rect height="152" width="192"/>
    </clipPath>
    <radialGradient id="j" cx="25.24371" cy="193.839157" gradientTransform="matrix(1.208333 1.166667 -2.537621 2.628251 481.387421 -516.908844)" gradientUnits="userSpaceOnUse" r="48">
        <stop offset="0" stop-color="#f66151"/>
        <stop offset="1" stop-color="#9141ac"/>
    </radialGradient>
    <mask id="k">
        <g filter="url(#e)">
            <rect fill-opacity="0.1" height="128" width="128"/>
        </g>
    </mask>
    <radialGradient id="l" cx="-28.559336" cy="-433.736725" gradientTransform="matrix(4.136364 -0.00000036 0 1.090909 186.131805 571.167297)" gradientUnits="userSpaceOnUse" r="44">
        <stop offset="0" stop-color="#ffffff"/>
        <stop offset="1" stop-color="#ffffff" stop-opacity="0.094118"/>
    </radialGradient>
    <clipPath id="m">
        <rect height="152" width="192"/>
    </clipPath>
    <mask id="n">
        <g filter="url(#e)">
            <rect fill-opacity="0.3" height="128" width="128"/>
        </g>
    </mask>
    <clipPath id="o">
        <rect height="152" width="192"/>
    </clipPath>
    <path d="m 44 48 c -2.214844 0 -4 1.785156 -4 4 v 64 c 0 2.214844 1.785156 4 4 4 h 40 c 2.214844 0 4 -1.785156 4 -4 v -64 c 0 -2.214844 -1.785156 -4 -4 -4 z m 20 36 c 6.628906 0 12 5.371094 12 12 s -5.371094 12 -12 12 s -12 -5.371094 -12 -12 s 5.371094 -12 12 -12 z m 0 0" fill="url(#b)"/>
    <path d="m 44 44 c -2.214844 0 -4 1.785156 -4 4 v 66 c 0 2.214844 1.785156 4 4 4 h 40 c 2.214844 0 4 -1.785156 4 -4 v -66 c 0 -2.214844 -1.785156 -4 -4 -4 z m 20 40 c 6.628906 0 12 5.371094 12 12 s -5.371094 12 -12 12 s -12 -5.371094 -12 -12 s 5.371094 -12 12 -12 z m 0 0" fill="#3d3846"/>
    <path d="m 16 20 h 96 c 4.417969 0 8 3.582031 8 8 v 60 c 0 4.417969 -3.582031 8 -8 8 h -96 c -4.417969 0 -8 -3.582031 -8 -8 v -60 c 0 -4.417969 3.582031 -8 8 -8 z m 0 0" fill="url(#c)"/>
    <path d="m 16 8 h 96 c 4.417969 0 8 3.582031 8 8 v 68 c 0 4.417969 -3.582031 8 -8 8 h -96 c -4.417969 0 -8 -3.582031 -8 -8 v -68 c 0 -4.417969 3.582031 -8 8 -8 z m 0 0" fill="#3d3846"/>
    <path d="m 75.941406 96.824219 c -0.433594 6.28125 -5.644531 11.160156 -11.941406 11.175781 c -6.226562 -0.015625 -11.410156 -4.792969 -11.925781 -11 c -0.039063 0.332031 -0.0625 0.664062 -0.074219 1 c 0 6.628906 5.371094 12 12 12 s 12 -5.371094 12 -12 c 0 -0.394531 -0.019531 -0.785156 -0.058594 -1.175781 z m 0 0" fill="url(#d)"/>
    <g clip-path="url(#g)" mask="url(#f)" transform="matrix(1 0 0 1 -8 -16)">
        <path d="m 48 112 h 12 v 4 h -12 z m 0 0"/>
    </g>
    <g clip-path="url(#i)" mask="url(#h)" transform="matrix(1 0 0 1 -8 -16)">
        <path d="m 84 112 h 12 v 4 h -12 z m 0 0"/>
    </g>
    <path d="m 16 12 h 96 c 2.210938 0 4 1.789062 4 4 v 64 c 0 2.210938 -1.789062 4 -4 4 h -96 c -2.210938 0 -4 -1.789062 -4 -4 v -64 c 0 -2.210938 1.789062 -4 4 -4 z m 0 0" fill="url(#j)"/>
    <g clip-path="url(#m)" mask="url(#k)" transform="matrix(1 0 0 1 -8 -16)">
        <path d="m 26 30 h 92 c 2.210938 0 4 1.789062 4 4 v 60 c 0 2.210938 -1.789062 4 -4 4 h -92 c -2.210938 0 -4 -1.789062 -4 -4 v -60 c 0 -2.210938 1.789062 -4 4 -4 z m 0 0" fill="url(#l)"/>
    </g>
    <g clip-path="url(#o)" mask="url(#n)" transform="matrix(1 0 0 1 -8 -16)">
        <path d="m 110 34 c -0.53125 0 -1.039062 0.210938 -1.414062 0.585938 l -8 8 c -0.78125 0.78125 -0.78125 2.046874 0 2.828124 s 2.046874 0.78125 2.828124 0 l 4.585938 -4.585937 v 50.171875 l -4.585938 -4.585938 c -0.78125 -0.78125 -2.046874 -0.78125 -2.828124 0 s -0.78125 2.046876 0 2.828126 l 8 8.171874 c 0.390624 0.390626 0.902343 0.585938 1.414062 0.585938 s 1.023438 -0.195312 1.414062 -0.585938 l 8 -8.171874 c 0.78125 -0.78125 0.78125 -2.046876 0 -2.828126 s -2.046874 -0.78125 -2.828124 0 l -4.585938 4.585938 v -50.171875 l 4.585938 4.585937 c 0.78125 0.78125 2.046874 0.78125 2.828124 0 s 0.78125 -2.046874 0 -2.828124 l -8 -8 c -0.375 -0.375 -0.882812 -0.585938 -1.414062 -0.585938 z m 0 0"/>
    </g>
    <path d="m 102 16 c -0.53125 0 -1.039062 0.210938 -1.414062 0.585938 l -8 8 c -0.78125 0.78125 -0.78125 2.046874 0 2.828124 s 2.046874 0.78125 2.828124 0 l 4.585938 -4.585937 v 50.171875 l -4.585938 -4.585938 c -0.78125 -0.78125 -2.046874 -0.78125 -2.828124 0 s -0.78125 2.046876 0 2.828126 l 8 8.171874 c 0.390624 0.390626 0.902343 0.585938 1.414062 0.585938 s 1.023438 -0.195312 1.414062 -0.585938 l 8 -8.171874 c 0.78125 -0.78125 0.78125 -2.046876 0 -2.828126 s -2.046874 -0.78125 -2.828124 0 l -4.585938 4.585938 v -50.171875 l 4.585938 4.585937 c 0.78125 0.78125 2.046874 0.78125 2.828124 0 s 0.78125 -2.046874 0 -2.828124 l -8 -8 c -0.375 -0.375 -0.882812 -0.585938 -1.414062 -0.585938 z m 0 0" fill="#f6f5f4"/>
</svg>

<?xml version="1.0" encoding="UTF-8" standalone="no"?>
<svg
   height="128px"
   viewBox="0 0 128 128"
   width="128px"
   version="1.1"
   id="svg34"
   sodipodi:docname="display-measure-vertical.svg"
   inkscape:version="1.3.2 (091e20ef0f, 2023-11-25)"
   xmlns:inkscape="http://www.inkscape.org/namespaces/inkscape"
   xmlns:sodipodi="http://sodipodi.sourceforge.net/DTD/sodipodi-0.dtd"
   xmlns:xlink="http://www.w3.org/1999/xlink"
   xmlns="http://www.w3.org/2000/svg"
   xmlns:svg="http://www.w3.org/2000/svg">
  <defs
     id="defs34">
    <linearGradient
       id="linearGradient52"
       inkscape:collect="always">
      <stop
         style="stop-color:#f6f5f4;stop-opacity:1;"
         offset="0"
         id="stop52" />
      <stop
         style="stop-color:#deddda;stop-opacity:1;"
         offset="1"
         id="stop53" />
    </linearGradient>
    <linearGradient
       id="linearGradient50"
       inkscape:collect="always">
      <stop
         style="stop-color:#f6f5f4;stop-opacity:1;"
         offset="0"
         id="stop50" />
      <stop
         style="stop-color:#deddda;stop-opacity:1;"
         offset="0.21491952"
         id="stop54" />
      <stop
         style="stop-color:#c0bfbc;stop-opacity:1;"
         offset="0.21491952"
         id="stop51" />
      <stop
         style="stop-color:#9a9996;stop-opacity:1;"
         offset="0.37486008"
         id="stop55" />
    </linearGradient>
    <linearGradient
       id="linearGradient49"
       gradientUnits="userSpaceOnUse">
      <stop
         offset="0"
         stop-color="#241f31"
         id="stop44"
         style="stop-color:#c0bfbc;stop-opacity:1;" />
      <stop
         offset="0.0357143"
         stop-color="#5e5c64"
         id="stop45"
         style="stop-color:#deddda;stop-opacity:1;" />
      <stop
         offset="0.0713653"
         stop-color="#241f31"
         id="stop46"
         style="stop-color:#c0bfbc;stop-opacity:1;" />
      <stop
         offset="0.92857099"
         stop-color="#241f31"
         id="stop47"
         style="stop-color:#c0bfbc;stop-opacity:1;" />
      <stop
         offset="0.96428603"
         stop-color="#5e5c64"
         id="stop48"
         style="stop-color:#deddda;stop-opacity:1;" />
      <stop
         offset="1"
         stop-color="#241f31"
         id="stop49"
         style="stop-color:#c0bfbc;stop-opacity:1;" />
    </linearGradient>
    <linearGradient
       inkscape:collect="always"
       xlink:href="#linearGradient50"
       id="linearGradient51"
       x1="59.643932"
       y1="117.95192"
       x2="59.643932"
       y2="44.025902"
       gradientUnits="userSpaceOnUse" />
    <linearGradient
       inkscape:collect="always"
       xlink:href="#linearGradient52"
       id="linearGradient53"
       x1="80.553734"
       y1="-101.46797"
       x2="80.553734"
       y2="127.80326"
       gradientUnits="userSpaceOnUse" />
    <clipPath
       id="o-3">
      <rect
         height="152"
         width="192"
         id="rect20-1"
         x="0"
         y="0" />
    </clipPath>
    <mask
       id="n-9">
      <g
         filter="url(#e)"
         id="g19-4"
         style="filter:url(#e-8)">
        <rect
           fill-opacity="0.3"
           height="128"
           width="128"
           id="rect19-7"
           x="0"
           y="0" />
      </g>
    </mask>
    <filter
       id="e-8"
       height="1"
       width="1"
       x="0"
       y="0">
      <feColorMatrix
         in="SourceGraphic"
         type="matrix"
         values="0 0 0 0 1 0 0 0 0 1 0 0 0 0 1 0 0 0 1 0"
         id="feColorMatrix12-4" />
    </filter>
    <clipPath
       id="o-4">
      <rect
         height="152"
         width="192"
         id="rect20-7"
         x="0"
         y="0" />
    </clipPath>
    <mask
       id="n-6">
      <g
         filter="url(#e)"
         id="g19-5"
         style="filter:url(#e-9)">
        <rect
           fill-opacity="0.3"
           height="128"
           width="128"
           id="rect19-6"
           x="0"
           y="0" />
      </g>
    </mask>
    <filter
       id="e-9"
       height="1"
       width="1"
       x="0"
       y="0">
      <feColorMatrix
         in="SourceGraphic"
         type="matrix"
         values="0 0 0 0 1 0 0 0 0 1 0 0 0 0 1 0 0 0 1 0"
         id="feColorMatrix12-3" />
    </filter>
  </defs>
  <sodipodi:namedview
     id="namedview34"
     pagecolor="#ffffff"
     bordercolor="#000000"
     borderopacity="0.25"
     inkscape:showpageshadow="2"
     inkscape:pageopacity="0.0"
     inkscape:pagecheckerboard="0"
     inkscape:deskcolor="#d1d1d1"
     inkscape:zoom="4.5507813"
     inkscape:cx="45.486695"
     inkscape:cy="54.606009"
     inkscape:window-width="2560"
     inkscape:window-height="1371"
     inkscape:window-x="0"
     inkscape:window-y="0"
     inkscape:window-maximized="1"
     inkscape:current-layer="svg34" />
  <linearGradient
     id="a"
     gradientUnits="userSpaceOnUse">
    <stop
       offset="0"
       stop-color="#241f31"
       id="stop1"
       style="stop-color:#c0bfbc;stop-opacity:1;" />
    <stop
       offset="0.0357143"
       stop-color="#5e5c64"
       id="stop2"
       style="stop-color:#deddda;stop-opacity:1;" />
    <stop
       offset="0.0713653"
       stop-color="#241f31"
       id="stop3"
       style="stop-color:#c0bfbc;stop-opacity:1;" />
    <stop
       offset="0.92857099"
       stop-color="#241f31"
       id="stop4"
       style="stop-color:#c0bfbc;stop-opacity:1;" />
    <stop
       offset="0.96428603"
       stop-color="#5e5c64"
       id="stop5"
       style="stop-color:#deddda;stop-opacity:1;" />
    <stop
       offset="1"
       stop-color="#241f31"
       id="stop6"
       style="stop-color:#c0bfbc;stop-opacity:1;" />
  </linearGradient>
  <linearGradient
     id="b"
     x1="88.0000305"
     x2="40"
     xlink:href="#a"
     y1="119.99999275"
     y2="119.99999275" />
  <linearGradient
     id="c"
     x1="120.00000025"
     x2="8.000004"
     xlink:href="#linearGradient49"
     y1="95.99999225"
     y2="95.99999225" />
  <linearGradient
     id="d"
     gradientUnits="userSpaceOnUse"
     x1="76.0000305"
     x2="52.0000305"
     y1="110.0000005"
     y2="110.0000005">
    <stop
       offset="0"
       stop-color="#241f31"
       id="stop7"
       style="stop-color:#c0bfbc;stop-opacity:1;" />
    <stop
       offset="0.0357143"
       id="stop8"
       style="stop-color:#9a9996;stop-opacity:1;" />
    <stop
       offset="0.0713653"
       stop-color="#241f31"
       id="stop9"
       style="stop-color:#c0bfbc;stop-opacity:1;" />
    <stop
       offset="0.92857099"
       stop-color="#241f31"
       id="stop10"
       style="stop-color:#c0bfbc;stop-opacity:1;" />
    <stop
       offset="0.96428603"
       id="stop11"
       style="stop-color:#9a9996;stop-opacity:1;" />
    <stop
       offset="1"
       stop-color="#241f31"
       id="stop12"
       style="stop-color:#c0bfbc;stop-opacity:1;" />
  </linearGradient>
  <filter
     id="e"
     height="1"
     width="1"
     x="0"
     y="0">
    <feColorMatrix
       in="SourceGraphic"
       type="matrix"
       values="0 0 0 0 1 0 0 0 0 1 0 0 0 0 1 0 0 0 1 0"
       id="feColorMatrix12" />
  </filter>
  <mask
     id="f">
    <g
       filter="url(#e)"
       id="g12">
      <rect
         fill-opacity="0.3"
         height="128"
         width="128"
         id="rect12" />
    </g>
  </mask>
  <clipPath
     id="g">
    <rect
       height="152"
       width="192"
       id="rect13" />
  </clipPath>
  <mask
     id="h">
    <g
       filter="url(#e)"
       id="g14">
      <rect
         fill-opacity="0.3"
         height="128"
         width="128"
         id="rect14" />
    </g>
  </mask>
  <clipPath
     id="i">
    <rect
       height="152"
       width="192"
       id="rect15" />
  </clipPath>
  <radialGradient
     id="j"
     cx="25.24371"
     cy="193.839157"
     gradientTransform="matrix(1.208333 1.166667 -2.537621 2.628251 481.387421 -516.908844)"
     gradientUnits="userSpaceOnUse"
     r="48">
    <stop
       offset="0"
       stop-color="#f66151"
       id="stop15" />
    <stop
       offset="1"
       stop-color="#9141ac"
       id="stop16" />
  </radialGradient>
  <mask
     id="k">
    <g
       filter="url(#e)"
       id="g16">
      <rect
         fill-opacity="0.1"
         height="128"
         width="128"
         id="rect16" />
    </g>
  </mask>
  <radialGradient
     id="l"
     cx="-28.559336"
     cy="-433.736725"
     gradientTransform="matrix(4.136364 -0.00000036 0 1.090909 186.131805 571.167297)"
     gradientUnits="userSpaceOnUse"
     r="44">
    <stop
       offset="0"
       stop-color="#ffffff"
       id="stop17" />
    <stop
       offset="1"
       stop-color="#ffffff"
       stop-opacity="0.094118"
       id="stop18" />
  </radialGradient>
  <clipPath
     id="m">
    <rect
       height="152"
       width="192"
       id="rect18" />
  </clipPath>
  <mask
     id="n">
    <g
       filter="url(#e)"
       id="g19">
      <rect
         fill-opacity="0.3"
         height="128"
         width="128"
         id="rect19" />
    </g>
  </mask>
  <clipPath
     id="o">
    <rect
       height="152"
       width="192"
       id="rect20" />
  </clipPath>
  <mask
     id="p">
    <g
       filter="url(#e)"
       id="g21">
      <rect
         fill-opacity="0.3"
         height="128"
         width="128"
         id="rect21" />
    </g>
  </mask>
  <clipPath
     id="q">
    <rect
       height="152"
       width="192"
       id="rect22" />
  </clipPath>
  <path
     d="m 44 48 c -2.214844 0 -4 1.785156 -4 4 v 64 c 0 2.214844 1.785156 4 4 4 h 40 c 2.214844 0 4 -1.785156 4 -4 v -64 c 0 -2.214844 -1.785156 -4 -4 -4 z m 20 36 c 6.628906 0 12 5.371094 12 12 s -5.371094 12 -12 12 s -12 -5.371094 -12 -12 s 5.371094 -12 12 -12 z m 0 0"
     fill="url(#b)"
     id="path22" />
  <path
     d="m 44 44 c -2.214844 0 -4 1.785156 -4 4 v 66 c 0 2.214844 1.785156 4 4 4 h 40 c 2.214844 0 4 -1.785156 4 -4 v -66 c 0 -2.214844 -1.785156 -4 -4 -4 z m 20 40 c 6.628906 0 12 5.371094 12 12 s -5.371094 12 -12 12 s -12 -5.371094 -12 -12 s 5.371094 -12 12 -12 z m 0 0"
     fill="#3d3846"
     id="path23"
     style="fill:url(#linearGradient51);fill-opacity:1" />
  <path
     d="m 16 20 h 96 c 4.417969 0 8 3.582031 8 8 v 60 c 0 4.417969 -3.582031 8 -8 8 h -96 c -4.417969 0 -8 -3.582031 -8 -8 v -60 c 0 -4.417969 3.582031 -8 8 -8 z m 0 0"
     fill="url(#c)"
     id="path24" />
  <path
     d="m 16 8 h 96 c 4.417969 0 8 3.582031 8 8 v 68 c 0 4.417969 -3.582031 8 -8 8 h -96 c -4.417969 0 -8 -3.582031 -8 -8 v -68 c 0 -4.417969 3.582031 -8 8 -8 z m 0 0"
     fill="#3d3846"
     id="path25"
     style="fill:url(#linearGradient53);fill-opacity:1" />
  <path
     d="m 75.941406 96.824219 c -0.433594 6.28125 -5.644531 11.160156 -11.941406 11.175781 c -6.226562 -0.015625 -11.410156 -4.792969 -11.925781 -11 c -0.039063 0.332031 -0.0625 0.664062 -0.074219 1 c 0 6.628906 5.371094 12 12 12 s 12 -5.371094 12 -12 c 0 -0.394531 -0.019531 -0.785156 -0.058594 -1.175781 z m 0 0"
     fill="url(#d)"
     id="path26" />
  <path
     d="m 16 12 h 96 c 2.210938 0 4 1.789062 4 4 v 64 c 0 2.210938 -1.789062 4 -4 4 h -96 c -2.210938 0 -4 -1.789062 -4 -4 v -64 c 0 -2.210938 1.789062 -4 4 -4 z m 0 0"
     fill="url(#j)"
     id="path29" />
  <g
     clip-path="url(#m)"
     mask="url(#k)"
     transform="matrix(1 0 0 1 -8 -16)"
     id="g30">
    <path
       d="m 26 30 h 92 c 2.210938 0 4 1.789062 4 4 v 60 c 0 2.210938 -1.789062 4 -4 4 h -92 c -2.210938 0 -4 -1.789062 -4 -4 v -60 c 0 -2.210938 1.789062 -4 4 -4 z m 0 0"
       fill="url(#l)"
       id="path30" />
  </g>
  <g
     id="g30-7">
    <g
       clip-path="url(#o-4)"
       mask="url(#n-6)"
       transform="translate(-8,-16)"
       id="g29">
      <path
         d="m 110,34 c -0.53125,0 -1.03906,0.210938 -1.41406,0.585938 l -8,8 c -0.781252,0.78125 -0.781252,2.046874 0,2.828124 0.78125,0.78125 2.04687,0.78125 2.82812,0 L 108,40.828125 V 91 l -4.58594,-4.585938 c -0.78125,-0.78125 -2.04687,-0.78125 -2.82812,0 -0.781252,0.78125 -0.781252,2.046876 0,2.828126 l 8,8.171874 C 108.97656,97.804688 109.48828,98 110,98 c 0.51172,0 1.02344,-0.195312 1.41406,-0.585938 l 8,-8.171874 c 0.78125,-0.78125 0.78125,-2.046876 0,-2.828126 -0.78125,-0.78125 -2.04687,-0.78125 -2.82812,0 L 112,91 V 40.828125 l 4.58594,4.585937 c 0.78125,0.78125 2.04687,0.78125 2.82812,0 0.78125,-0.78125 0.78125,-2.046874 0,-2.828124 l -8,-8 C 111.03906,34.210938 110.53125,34 110,34 Z m 0,0"
         id="path29-4" />
    </g>
    <path
       d="m 102,16 c -0.53125,0 -1.03906,0.210938 -1.41406,0.585938 l -8.000002,8 c -0.78125,0.78125 -0.78125,2.046874 0,2.828124 0.78125,0.78125 2.046874,0.78125 2.828124,0 L 100,22.828125 V 73 l -4.585938,-4.585938 c -0.78125,-0.78125 -2.046874,-0.78125 -2.828124,0 -0.78125,0.78125 -0.78125,2.046876 0,2.828126 l 8.000002,8.171874 C 100.97656,79.804688 101.48828,80 102,80 c 0.51172,0 1.02344,-0.195312 1.41406,-0.585938 l 8,-8.171874 c 0.78125,-0.78125 0.78125,-2.046876 0,-2.828126 -0.78125,-0.78125 -2.04687,-0.78125 -2.82812,0 L 104,73 V 22.828125 l 4.58594,4.585937 c 0.78125,0.78125 2.04687,0.78125 2.82812,0 0.78125,-0.78125 0.78125,-2.046874 0,-2.828124 l -8,-8 C 103.03906,16.210938 102.53125,16 102,16 Z m 0,0"
       fill="#f6f5f4"
       id="path30-5"
       style="fill:#ffffff;fill-opacity:1" />
  </g>
</svg>
